X:1
T:Title
%%score { ( 1 2 ) | ( 3 4 ) } 5
L:1/8
Q:1/4=84
M:4/4
K:C
V:1 treble nm="Grand Piano, Piano"
V:2 treble 
V:3 bass 
V:4 bass 
V:5 treble nm="Clarinet, Clarinet"
V:1
 .G2 z2 .G2 z2 | .[Fc]2 BA D2 z2 | A2 z2 E4 | z4[K:bass] C2 C2 |] %4
V:2
 [CE]4 [B,D]4 | z4 [EG]4 | [A,C]4 .C2 z2 | .[A,F]2[K:bass] .[B,E]2 [E,G,]G, z E |] %4
V:3
 z[K:treble] GGG[K:bass] z[K:treble] GGG | z C F2 z2 CB, | z2[K:treble] GF[K:bass] z G,CE | %3
 z C z D C,,4 |] %4
V:4
 C,4[K:treble][K:bass] B,,4[K:treble] | A,,4 G,,4 | F,,4[K:treble][K:bass] E,,4 | D,,2 G,,2 z4 |] %4
V:5
 GGGG GGGG | c2 BA G4 | A2 GF E4 | F2 ED C4 |] %4

